flaticon/symbols/aries.svg

<svg xmlns="http://www.w3.org/2000/svg" width="32" height="32" viewBox="0 0 24 24">
    <path d="M 12 0 C 5.382812 0 0 5.382812 0 12 C 0 18.617188 5.382812 24 12 24 C 18.617188 24 24 18.617188 24 12 C 24 5.382812 18.617188 0 12 0 Z M 12 23.171875 C 5.839844 23.171875 0.828125 18.160156 0.828125 12 C 0.828125 5.839844 5.839844 0.828125 12 0.828125 C 18.160156 0.828125 23.171875 5.839844 23.171875 12 C 23.171875 18.160156 18.160156 23.171875 12 23.171875 Z M 12 23.171875"/>
    <path d="M 16.136719 4.964844 C 14.300781 4.964844 12.71875 6.0625 12 7.632812 C 11.28125 6.0625 9.699219 4.964844 7.863281 4.964844 C 5.351562 4.964844 3.308594 7.007812 3.308594 9.515625 C 3.308594 9.746094 3.496094 9.929688 3.722656 9.929688 C 3.953125 9.929688 4.136719 9.746094 4.136719 9.515625 C 4.136719 7.464844 5.808594 5.792969 7.863281 5.792969 C 9.914062 5.792969 11.585938 7.464844 11.585938 9.515625 L 11.585938 20.277344 C 11.585938 20.503906 11.773438 20.691406 12 20.691406 C 12.226562 20.691406 12.414062 20.503906 12.414062 20.277344 L 12.414062 9.515625 C 12.414062 7.464844 14.085938 5.792969 16.136719 5.792969 C 18.191406 5.792969 19.863281 7.464844 19.863281 9.515625 C 19.863281 9.746094 20.046875 9.929688 20.277344 9.929688 C 20.503906 9.929688 20.691406 9.746094 20.691406 9.515625 C 20.691406 7.007812 18.648438 4.964844 16.136719 4.964844 Z M 16.136719 4.964844"/>
</svg>

<svg xmlns="http://www.w3.org/2000/svg" width="32" height="32" viewBox="0 0 24 24">
    <path d="M12 0C5.383 0 0 5.383 0 12s5.383 12 12 12 12-5.383 12-12S18.617 0 12 0zm0 23.172C5.84 23.172.828 18.16.828 12 .828 5.84 5.84.828 12 .828 18.16.828 23.172 5.84 23.172 12c0 6.16-5.012 11.172-11.172 11.172zm0 0"/>
    <path d="M16.137 4.965A4.556 4.556 0 0 0 12 7.633a4.556 4.556 0 0 0-4.137-2.668 4.559 4.559 0 0 0-4.554 4.55.414.414 0 0 0 .828 0 3.73 3.73 0 0 1 3.726-3.722 3.73 3.73 0 0 1 3.723 3.723v10.761c0 .227.187.414.414.414a.417.417 0 0 0 .414-.414V9.516a3.73 3.73 0 0 1 3.723-3.723 3.73 3.73 0 0 1 3.726 3.723.414.414 0 0 0 .828 0 4.559 4.559 0 0 0-4.554-4.551zm0 0"/>
</svg>
